!!!!SEGMENT: pl-wtm--r-1419--004_stefani-jozef--polonez.krn
!!!cenid: 18xx:2040
!!!COM: Stefani, Józef
!!!COM-rismID: pe30024097
!!!CDT: 1800/04/16-1876/03/19
!!!CNT: Polish
!!!OTL: Polonez
!!!PDT:
!!!AGN: Secular; Polonaise
!!!SMS-siglum: PL-Wtm
!!!SMS-shelfmark: R 1419
!!!SMS-shelfwork: W
!!!SMS-variant:
!!!SMS-altvar:
!!!NIFC-rismSourceID: 1001116009
!!!NIFC-islandoraID:
!!!URL-pdf-islandora:
!!!URL-scan:
!!!ONB-nifc: UWAGA: utwory w zbiorze: 1. Bitwa pod Ostrołęką, 2. Marsz połączonych Polaków, 3. Marsz Podchorążych, 4. Polonez. Każdy utwór ma własną sygnaturę (R 1416-1419)
!!!AIN: 1 piano
!!!key:
**kern	**kern	**dynam
*part1	*part1	*part1
*staff2	*staff1	*
*Ipiano	*Ipiano	*
*I"Piano	*I"Piano	*
*clefF4	*clefG2	*
*k[f#c#]	*k[f#c#]	*
*D:	*D:	*
*M3/4	*M3/4	*
*>[A,B,B,C,C,D,E,A,B,B,C,C,D]	*>[A,B,B,C,C,D,E,A,B,B,C,C,D]	*
=1	=1	=1
*>A	*>A	*
!	!	!LO:DY:rj
8D/L	8d/L	f
!LO:TUP:b	!	!
!LO:TUP:b:problem=klamra łukowa	!LO:TUP:a:problem=klamra łukowa	!
24AA/L	24A/L	.
24BB/	24B/	.
24C#/JJ	24c#/JJ	.
8D/L	8d/L	.
8AA/J	8A/J	.
8D/L	8d/L	.
8AA/J	8A/J	.
=2	=2	=2
8D/L	8d/L	.
8AA/	8A/	.
8D/	8d/	.
8AA/	8A/	.
8D/	8d/	.
8D#X/J	8d#X/J	.
=3	=3	=3
8E/L	8e/L	.
!LO:TUP:b:problem=klamra łukowa	!LO:TUP:a:problem=klamra łukowa	!
24BB/L	24B/L	.
24C#/	24c#/	.
24D#X/JJ	24d#X/JJ	.
8E/L	8e/L	.
8BB/	8B/	.
8E/	8e/	.
8BB/J	8B/J	.
=4	=4	=4
8E/L	8e/L	.
8BB/	8B/	.
8E/	8e/	.
8BB/	8B/	.
8E/	8e/	.
8E#X/J	8e#X/J	.
=5	=5	=5
8F#\L	8f#/L	.
16D\L	16d/L	.
16E\JJ	16e/JJ	.
8F#\L	8f#/L	.
8D\	8d/	.
8F#\	8f#/	.
8D\J	8d/J	.
=6	=6	=6
4.BB 4.BBB/	8.gL 8.d/	.
*	*Xtuplet	*
.	48d/LL	.
.	48e/	.
.	48f#/JJJ	.
.	8g/L	.
8DL 8DD/	8d/	.
8BB 8BBB/	8g/	.
8DJ 8DD/	8d/J	.
=7	=7	=7
8BB-X 8BBB-X/	8g#X/	.
16B-yLL 16BB-\	16gg#yLL 16ee 16dd 16g#\	.
16B-JJ 16BB-\	16gg#JJ 16ee 16dd 16g#\	.
*tremolo	*tremolo	*
8B-L 8BB-\	8gg#L 8ee 8dd 8g#\	.
8B- 8BB-\	8gg# 8ee 8dd 8g#\	.
8B- 8BB-\	8gg# 8ee 8dd 8g#\	.
8B-J 8BB-\	8gg#J 8ee 8dd 8g#\	.
*Xtremolo	*Xtremolo	*
=8	=8	=8
8A 8AA\	8aa 8ee 8cc# 8a\	.
8r	8r	.
4AA 4AAA/	4a 4c#/	.
4r	4r	.
=9||:	=9||:	=9||:
*>B	*>B	*
!	!LO:TX:b:i:t=dolce	!
8D\L	4.aa\	.
8f#J 8d 8A\	.	.
*tremolo	*	*
8f#L 8d 8A\	.	.
8f# 8d 8A\	16bb\LL	.
.	16ccc#\JJ	.
8f# 8d 8A\	16ddd\LL	.
.	16eee\	.
8f#J 8d 8A\	16fff#\	.
.	16aa\JJ	.
*Xtremolo	*	*
=10	=10	=10
!LO:TX:t=P:problem=mixed beam	!	!
.	8qqeee/	.
8GG/L	(>16ddd\LL	.
.	16ccc#\	.
8e\J 8B\ 8G\	16ddd\	.
.	16bb\JJ)	.
*tremolo	*	*
8eL 8B 8G\	4.gg\	.
8e 8B 8G\	.	.
8e 8B 8G\	.	.
8eJ 8B 8G\	8ff#\	.
*Xtremolo	*	*
=11	=11	=11
!LO:TX:t=P:problem=mixed beam	!	!
8AA/L	16ee\LL	.
.	16ff#\	.
8g\J 8e\ 8c#\ 8A\	16gg\	.
.	16gg#X\JJ	.
*tremolo	*	*
8gL 8e 8c# 8A\	16aa\LL	.
.	16aa#X\	.
8g 8e 8c# 8A\	16ccc#\	.
.	16bb\JJ	.
8g 8e 8c# 8A\	16aan\LL	.
.	16ggn\	.
8gJ 8e 8c# 8A\	16ff#\	.
.	16ee\JJ	.
*Xtremolo	*	*
=12	=12	=12
4f# 4d\	16dd\LL	.
.	16aa\	.
.	16ff#\	.
.	16ddd\JJ	.
8f#L 8F#\	16ff#\LL	.
.	16ddd\	.
8dJ 8D\	16aa\	.
.	16fff#\JJ	.
8AL 8AA/	16aa\LL	.
.	16fff#\	.
8F#J 8FF#/	16ddd\	.
.	16aaa\JJ	.
=	=	=
!LO:TX:t=P:problem=mixed beam	!	!
8D/L 8DD/	16ggg#X\LL	.
.	16aaa\	.
8d\J 8A\ 8F#\	16bbb\	.
.	16aaa\JJ	.
!LO:TX:t=P:problem=mixed beam	!	!
8BB/L	16eee#X\LL	.
.	16fff#\	.
*custos:D	*	*
8d\J 8A\ 8F#\	16ggg#\	.
*	*custos:b	*
.	16fff#\JJ	.
!!LO:LB:g=original
=13-	=13-	=13
!LO:TX:t=P:problem=mixed beam	!	!
8FF#/L	16ccc#\LL	.
.	16ddd\	.
.	8qfff#/	.
8d\J 8A\ 8F#\	16eeeny\	.
.	16ddd\JJ	.
=14	=14	=14
8GG/L|	8bb\	.
8GJ 8E/|	8r	.
8BL 8G\|	4.ggg 4.bb 4.gg\	.
8gJ 8e\|	.	.
8b> 8g>\	.	.
8r>	8bb\	.
=15	=15	=15
8A 8AA/	8aa\L	.
8f#> 8d> 8A\	16bb\L	.
.	16ccc#\JJ	.
*tremolo	*	*
8f#>L 8d> 8A\	16ddd\LL	.
.	16eee\	.
8f# 8d 8A\	16fff#\	.
.	16ccc#\JJ	.
8f# 8d 8A\	16eee\LL	.
.	16ddd\	.
8f#J 8d 8A\	16aa\	.
.	16ff#\JJ	.
*Xtremolo	*	*
*clefG2	*	*
=16	=16	=16
8gL 8e 8c# 8A/	16ee\LL	.
.	16bb\	.
8gJ 8e 8c# 8A/	16aa\	.
.	16cc#\JJ	.
8r	4ee\	.
8g 8c# 8A/	.	.
8f# 8d 8A/	8dd\	.
8r	8r	.
=17:|!|:	=17:|!|:	=17:|!|:
*>C	*>C	*
!LO:CL:ed	!	!
*clefF4	*	*
8AL 8AA\	4ee 4e\	.
8c#J 8A 8E\	.	.
*rep	*	*
8AL 8AA\	16r	.
.	16eeLL 16e\	.
8c#J 8A 8E\	16ff# 16f#\	.
.	16gg#XJJ 16g#X\	.
*Xrep	*	*
*rep	*	*
8AL 8AA\	16aaLL 16a\	.
.	16bb 16b\	.
8c#J 8A 8E\	16ccc# 16cc#\	.
.	16dddJJ 16dd\	.
*Xrep	*	*
=18	=18	=18
*rep	*	*
8AL 8AA\	8ddd#X 8dd#X\	sf
8c#J 8A 8E\	4eee 4ee\	.
*Xrep	*	*
*rep	*	*
8AL 8AA\	.	.
8c#J 8A 8E\	16fff#LL 16ff#\	.
.	16eeeJJ 16ee\	.
*Xrep	*	*
*rep	*	*
8AL 8AA\	16ddd#LL 16dd#\	.
.	16ccc# 16cc#\	.
8c#J 8A 8E\	16bb 16b\	.
.	16aaJJ 16a\	.
*Xrep	*	*
=19	=19	=19
!LO:TX:t=P:problem=mixed beam	!	!
8E/L 8EE/	(>16aaLL 16dd 16b\	.
.	16gg#X\)	.
8d\J 8G#X\ 8E\	(>16ff# 16b 16g#X\	.
.	16ee\JJ)	.
*rep	*	*
8EL 8EE\	(>16aaLL 16dd 16b\	.
.	16gg#X\)	.
8dJ 8G# 8E\	(>16ff# 16b 16g#X\	.
.	16ee\JJ)	.
*Xrep	*	*
*rep	*	*
8EL 8EE\	(>16dd#XLL 16b 16g#\	.
.	16ee\)	.
8dJ 8G# 8E\	(>16ff# 16b 16g#\	.
.	16ee\JJ)	.
*Xrep	*	*
=20	=20	=20
8c# 8A\	8cc# 8a\	.
16A\LL	16ee\LL	.
16E\JJ	16aa\JJ	.
*	*8va	*
16C#/LL	16ccc#\LL	.
16AA/	16eee\	.
16EE/	16aaa\	.
16CC#/JJ	16cccc#\JJ	.
!	!LO:TX:a:t=loco	!
8AAA/	8eeee\	.
*	*X8va	*
8r	8r	.
=21	=21	=21
8A 8AA\	(>8ee 8cc# 8a 8e\	.
4e 4c# 4A 4E\	32dd#X\LLL	.
.	32ee\	.
.	32ff#\	.
.	32ee\JJJ	.
.	32dd#\LLL	.
.	32ee\	.
.	32ff#\	.
.	32gg#X\JJJ	.
8eL 8c# 8A 8E\	32aa\LLL	.
.	32bb\	.
.	32ccc#\	.
.	32dddn\JJJ	.
*	*8va	*
8e 8c# 8A 8E\	32eee\LLL	.
.	32fff#\	.
.	32ggg#\	.
.	32aaa\JJJ	.
8eJ 8c# 8A 8E\	32bbb\LLL	.
.	32cccc#\	.
.	32dddd\	.
.	32dddd#X\JJJ	.
=22	=22	=22
8AL 8AA\	32eeee\LLL	.
.	32cccc#\)	.
.	32aaa\	.
.	32eee\JJJ	.
8eJ 8c# 8A\	32cccc#\LLL	.
.	32aaa\	.
.	32eee\	.
.	32ccc#\JJJ	.
8AL 8AA\	32aaa\LLL	.
.	32eee\	.
.	32ccc#\	.
!	!LO:TX:a:i:t=loco	!
.	32aa\JJJ	.
*	*X8va	*
8eJ 8c# 8A\	32eee\LLL	.
.	32ccc#\	.
.	32aa\	.
.	32ee\JJJ	.
8C#L 8CC#/	32ccc#\LLL	.
.	32aa\	.
.	32ee\	.
.	32cc#\JJJ	.
8AJ 8E 8C#/	32aa\LLL	.
.	32ee\	.
.	32cc#\	.
.	32a\JJJ	.
!!LO:LB:g=original
=23	=23	=23
8D 8DD/	16f#/LL	.
.	32g#X/L	.
.	32a#X/JJJ	.
4B 4F# 4D\	32b\LLL	.
.	32cc#\	.
.	32dd\	.
.	32ee\JJJ	.
.	32ff#\LLL	.
.	32gg\	.
.	32aa\	.
.	32bb\JJJ	.
8B 8F# 8D\	32ccc#\LLL	.
.	32ddd\	.
.	32eee\	.
.	32eee#X\JJJ	.
8BL 8F# 8D\	32fff#\LLL	.
.	32eeen\	.
.	32ddd\	.
.	32ccc#\JJJ	.
8BJ 8F# 8D\	32bb\LLL	.
.	32aa\	.
.	32gg\	.
.	32ff#\JJJ	.
=24	=24	=24
8c#L 8E\	16ee\LL	.
.	16aa\	.
8dJ 8B 8E\	16gg#X\	.
.	16bb\JJ	.
8r	(>4bb\	.
8d 8G#X 8E\	.	.
8c# 8A\	8aa\)	.
8r	8r	.
!	!LO:TX:b:i:t=v&colon; de. Trio	!
=25:||	=25:||	=25:||
*>D>	*>D	*
*k[f#cn]	*k[f#cn]	*
*M3/4	*M3/4	*
!LO:TX:t=P:problem=mixed beam	!	!
8GG/L	(>4.dd\	.
8B\J 8G\ 8D\	.	.
*tremolo	*	*
8BL 8G 8D\	.	.
8B 8G 8D\	8gg\	.
8B 8G 8D\	8b\L	.
8BJ 8G 8D\	8ee\J)	.
*Xtremolo	*	*
=26	=26	=26
8FF#/	(>8.dd^>\L	.
8c 8A 8F# 8D\	.	.
*	*Xtuplet	*
.	48cc\LL	.
.	48a\	.
.	48f#\JJJ	.
*tremolo	*	*
8cL 8A 8F# 8D\	8d/)	.
.	8qf#/	.
8c 8A 8F# 8D\	16e/LL	.
.	16d/JJ	.
8c 8A 8F# 8D\	(>8.ee\L	.
8cJ 8A 8F# 8D\	.	.
.	16dd\Jk)	<
*Xtremolo	*	*
=27	=27	=27
8GL 8GG\	16b/LL	.
.	16d/	.
8BJ 8G 8D\	16g/	.
.	16b/JJ	.
*rep	*	*
8GL 8GG\	16dd/LL	.
.	16g/	.
8BJ 8G 8D\	16b/	.
.	16dd/JJ	.
*Xrep	*	*
*rep	*	*
8GL 8GG\	16gg\LL	.
.	16dd\	.
8BJ 8G 8D\	16eee\	.
.	16ddd\JJ	[[
*Xrep	*	*
=28	=28	=28
!LO:TX:t=P:problem=mixed beam	!	!
8D/L 8DD/	8.ddd\L	.
8c\J 8F#\ 8D\	.	.
.	16ccc#X\Jk	.
8cL 8F# 8D\	4.cccn\	.
8cJ 8F# 8D\	.	.
8c 8F# 8D\	.	.
8r	8dd\	.
=29	=29	=29
16D\LL	8ccc\	.
16c\	.	.
16F#\	(>4ccc\	.
16c\JJ	.	.
*rep	*	*
16D\LL	.	.
16c\	.	.
16F#\	16bb\LL)	.
16c\JJ	16aa\JJ	.
*Xrep	*	*
*rep	*	*
16D\LL	16gg#X\LL	.
16c\	16aa\	.
16F#\	16bb\	.
16c\JJ	16aa\JJ	.
*Xrep	*	*
=30	=30	=30
16D\LL	8bb\	.
16B\	.	.
16G\	(>4bb\	.
16B\JJ	.	.
*rep	*	*
16D\LL	.	.
16B\	.	.
16G\	16aa\LL	.
16B\JJ	16gg\JJ	.
*Xrep	*	*
*rep	*	*
16D\LL	16ff#\LL	.
16B\	16gg\	.
16G\	16aa\	.
16B\JJ	16gg\JJ)	.
*Xrep	*	*
!!LO:LB:g=original
=31	=31	=31
!LO:TX:t=P:problem=mixed beam	!	!
8AA/L	4.ee\	.
8c#X\J 8G\ 8E\	.	.
8c#L 8G 8E\	.	.
8c#J 8G 8E\	16bb\LL	.
.	16aa\JJ	.
!LO:TX:t=P:problem=mixed beam	!	!
8AA/L	8ee\L	.
8c#\J 8G\ 8E\	16bb\L	.
.	16aa\JJ	.
=32	=32	=32
8dL 8A 8F# 8D\	(>16ff#\LL	.
.	16gg\)	.
8eJ 8c#X 8A\	16ee\	.
.	16ff#\JJ	.
8f# 8d\	8dd\L	.
8r	16dd\L	.
.	16dd\JJ	.
4r	16cc#X\LL	.
.	16dd\	.
.	8qff#/	.
.	16ee\	.
.	16dd\JJ	.
=33	=33	=33
!LO:TX:t=P:problem=mixed beam	!	!
8GG/L	4.dd\	.
8B\J 8G\ 8D\	.	.
*tremolo	*	*
8BL 8G 8D\	.	.
8B 8G 8D\	8gg\	.
8B 8G 8D\	8b\L	.
8BJ 8G 8D\	8ee\J	.
*Xtremolo	*	*
=34	=34	=34
*	*^	*
8DD/	8.dd\L	4ryy	.
8c 8A 8F# 8D\	.	.	.
*	*tuplet	*	*
!	!LO:TUP:a:problem=klamra łukowa	!	!
.	48cc\LL	.	.
.	48a\	.	.
.	48f#\JJJ	.	.
*tremolo	*	*	*
8cL 8A 8F# 8D\	8d/	8d\	.
.	8qf#/	.	.
8c 8A 8F# 8D\	16.e/LL	8ryy	.
.	32d/JJk	.	.
8c 8A 8F# 8D\	8.ee\L	4ryy	.
8cJ 8A 8F# 8D\	.	.	.
.	16dd\Jk	.	.
*Xtremolo	*	*	*
*	*v	*v	*
=35	=35	=35
8GL 8GG\	16b/LL	.
.	16d/	.
8BJ 8G 8D\	16g/	.
.	16b/JJ	.
*rep	*	*
8GL 8GG\	16dd/LL	.
.	16g/	.
8BJ 8G 8D\	16b/	.
.	16dd/JJ	.
*Xrep	*	*
*rep	*	*
8GL 8GG\	16gg\LL	.
.	16dd\	.
8BJ 8G 8D\	16eee\	.
.	16ddd\JJ	.
*Xrep	*	*
=36	=36	=36
!LO:TX:t=P:problem=mixed beam	!	!
8D/L 8DD/	8.ddd\L	.
8c\J 8F#\ 8D\	.	.
.	16ccc#X\Jk	.
*tremolo	*	*
8cL 8F# 8D\	4.cccn\	.
8c 8F# 8D\	.	.
8c 8F# 8D\	.	.
8cJ 8F# 8D\	8dd\	.
*Xtremolo	*	*
=37	=37	=37
16D\LL	8ccc\	.
16c\	.	.
16F#\	4ccc\	.
16c\JJ	.	.
*rep	*	*
16D\LL	.	.
16c\	.	.
16F#\	16bb\LL	.
16c\JJ	16aa\JJ	.
*Xrep	*	*
*rep	*	*
16D\LL	16gg#X\LL	.
16c\	16aa\	.
16F#\	16bb\	.
16c\JJ	16aa\JJ	.
*Xrep	*	*
=38	=38	=38
16D\LL	8ccc\	.
16B\	.	.
16G\	4bb\	.
16B\JJ	.	.
16D\LL	.	.
16B\	.	.
16G\	16aa\LL	.
16B\JJ	16gg\JJ	.
16BB\LL	16ff#\LL	.
16G\	16gg\	.
16D\	16aa\	.
16G\JJ	16gg\JJ	.
=39	=39	=39
16C\LL	8ee\L	.
16A\	.	.
16E\	16ff#\L	.
16A\JJ	16gg#X\JJ	.
*rep	*	*
16C\LL	16aa\LL	.
16A\	16bb\	.
16E\	16ccc\	.
16A\JJ	16bb\JJ	.
*Xrep	*	*
*rep	*	*
16C\LL	16aa\LL	.
16A\	16ggn\	.
16E\	16ff#\	.
16A\JJ	16ee\JJ	.
*Xrep	*	*
=40	=40	=40
8BL 8G 8D\	16dd\LL	.
.	16gg\	.
8cJ 8A 8D\	16ff#\	.
.	16aa\JJ	.
8r	(>4aa\	.
8c 8F# 8D\	.	.
8B 8G\	8gg\)	.
!	!LO:TX:b:i:t=Fine	!
!LO:TX:a:t=P:problem=w źródle fermata pod podwójną kreską taktową	!LO:TX:a:t=P:problem=w źródle fermata nad podwójną kreską taktową	!
8r;<	8r;>	.
=41||	=41||	=41||
*>E	*>E	*
!LO:TX:t=P:problem=mixed beam	!	!
8DD/L	16ee\LL	f
.	16dd\	.
8c\J 8A\ 8F#\ 8D\	16cc\	.
.	16a\JJ	.
8D\L	16f#/LL	.
.	16d/	.
.	8qf#/	.
8c 8A 8F#\	16e/	.
.	16d/JJ	.
8D\	16a/LL	.
.	16f#/	.
8cJ 8A 8F#\	16ee/	.
.	16dd/JJ	.
=42	=42	=42
*	*^	*
!LO:TX:t=P:problem=mixed beam	!	!	!
8GG/L	16b/LL	8r	.
.	16g/	.	.
8B\J 8G\ 8D\	16ee/	8b 8g\	.
.	16dd/JJ	.	.
*rep	*	*	*
8GG\L	16cc/LL	8r	.
.	16g/	.	.
8BJ 8G 8D\	16ee/	8b 8g\	.
.	16dd/JJ	.	.
*Xrep	*	*	*
*rep	*	*	*
8GG\L	16b/LL	8r	.
.	16g/	.	.
8BJ 8G 8D\	16ee/	8b 8g\	.
.	16dd/JJ	.	.
*Xrep	*	*	*
*	*v	*v	*
!!LO:LB:g=original
=43	=43	=43
!LO:TX:t=P:problem=mixed beam	!	!
8AA/L	16a/LL	.
.	16b/	.
8g\J 8e\ 8c#X\ 8A\	16cc#X/	.
.	16dd/JJ	.
*tremolo	*	*
8gL 8e 8c# 8A\	16ee\LL	.
.	16ff#\	.
8g 8e 8c# 8A\	16gg\	.
.	16aa\JJ	.
8g 8e 8c# 8A\	16ccc#y\LL	.
.	16bb\	.
8gJ 8e 8c# 8A\	16gg\	.
.	16ee\JJ	.
*Xtremolo	*	*
=44	=44	=44
8f# 8d\	8dd\	.
16AA/LL	4ff#\	.
16A\JJ	.	.
16F#LL 16D\	.	.
16A\	.	.
16AA\	16ee\LL	.
16G\JJ	16dd\JJ	.
16F#LL 16D\	16cc#X\LL	.
16A\	16ee\	.
16AA\	16dd\	.
16G\JJ	16b\JJ	.
=45	=45	=45
16GLL 16C#X\	8a/	.
16A\	.	.
16AA\	16ee\LL	.
!	!LO:SIC:v:s=cc#	!
16A\JJ	16cc\JJ	.
*rep	*	*
16GLL 16C#\	16aa\LL	.
16A\	16ee\	.
!	!LO:SIC:v:s=ccc#	!
16AA\	16ccc\	.
16A\JJ	16aa\JJ	.
*Xrep	*	*
*rep	*	*
16GLL 16C#\	16eee\LL	.
!	!LO:SIC:v:s=ccc#	!
16A\	16ccc\	.
16AA\	16aaa\	.
16A\JJ	16ggg\JJ	.
*Xrep	*	*
=46	=46	=46
16F#LL 16D\	8fff#\	.
16A\	.	.
16AA\	4fff#\	.
16A\JJ	.	.
*rep	*	*
16F#LL 16D\	.	.
16A\	.	.
16AA\	16eee\LL	.
16A\JJ	16ddd\JJ	.
*Xrep	*	*
*rep	*	*
16F#LL 16D\	16ccc#X\LL	.
16A\	16eee\	.
16AA\	16ddd\	.
16A\JJ	16bb\JJ	.
*Xrep	*	*
=47	=47	=47
16GLL 16C#X\	8aa\L	.
16A\	.	.
16AA\	16ggg\L	.
16A\JJ	16eee\JJ	.
*rep	*	*
16GLL 16C#\	16ccc#X\LL	.
16A\	16aa\	.
16AA\	16gg\	.
16A\JJ	16ee\JJ	.
*Xrep	*	*
*rep	*	*
16GLL 16C#\	16cc#y/LL	.
16A\	16a/	.
16AA\	16g/	.
16A\JJ	16e/JJ	.
*Xrep	*	*
=48	=48	=48
4A 4F# 4D\	8d/L	.
.	8ddJ 8d/	.
4B 4G\	8ddL 8d/	.
.	8ddJ 8d/	.
4c 4A\	8ddL 8f#/	.
!	!LO:TX:b:i:t=  d&colon; Capo al fine Mazur	!
.	8dd/J	.
==	==	==
*-	*-	*-
!!!system-decoration: {s1,s2}
!!!RDF**kern: | = vertical stroke
!!!RDF**kern: > = above
!!!RDF**kern: < = below
!!!EED: Antoni Szymański
!!!EEV: 2021-06-02
!!!ENC: Marcin Jachim
!!!END: 2021-04-24
